X: 44
T:Moher Reel, The
T:Abbey Reel, The
T:Reddican's Reel
M:C|
L:1/8
R:Reel
K:ADor
A3B A2GE|A2GA BddB|~A3B AGEF|~G3A BddB|!
A3B A2GE|A2GA BddB|"var."AcBG "var."AGED|GFGA Bddg|]!
eg~g2 a2ba|gabg aged|eg~g2 a2ga|bgaf gedg|!
eg~g2 agbg|agbg a2ge|degb a2ga|bgaf gedB|]!
